; generated by Slic3r 0.9.8 on 2013-04-21 at 16:36:34

; layer_height = 0.3
; perimeters = 3
; top_solid_layers = 3
; bottom_solid_layers = 3
; fill_density = 0.3
; perimeter_speed = 30
; infill_speed = 60
; travel_speed = 130
; scale = 1
; nozzle_diameter = 0.35
; filament_diameter = 1.74
; extrusion_multiplier = 0.84
; perimeters extrusion width = 0.42mm
; infill extrusion width = 0.42mm
; first layer extrusion width = 0.42mm

M107
M190 S60 ; wait for bed temperature to be reached
M104 S180 ; set temperature
G21
G91
G1 X200 F3000
G1 Y200 F3000
G1 X-82 Y-76 F3000
G1 Z-200 F500
G1 Z5 F500
G1 Z-10 F250
G90
G92 X0 Y0 Z0 E0
M109 S180 ; wait for temperature to be reached
G90 ; use absolute coordinates
G21 ; set units to millimeters
G92 E0
M82 ; use absolute distances for extrusion
G1 F900.000 E-1.50000
G92 E0
G1 Z0.300 F7800.000
G1 X-38.650 Y-16.950
G1 F900.000 E1.50000
G1 X-38.540 Y-17.140 F540.000 E1.50942
G1 X-38.280 Y-17.510 E1.52883
G1 X-37.990 Y-17.850 E1.54801
G1 X-37.670 Y-18.150 E1.56684
G1 X-37.310 Y-18.430 E1.58641
G1 X-36.740 Y-18.770 E1.61489
G1 X-36.530 Y-18.860 E1.62470
G1 X-35.900 Y-19.080 E1.65334
G1 X-35.460 Y-19.170 E1.67262
G1 X-10.430 Y-21.680 E2.75225
G1 X-9.990 Y-21.700 E2.77115
G1 X9.980 Y-21.700 E3.62823
G1 X10.420 Y-21.680 E3.64714
G1 X35.450 Y-19.170 E4.72677
G1 X35.890 Y-19.080 E4.74605
G1 X36.320 Y-18.940 E4.76546
G1 X36.730 Y-18.770 E4.78451
G1 X37.120 Y-18.550 E4.80372
G1 X37.480 Y-18.300 E4.82253
G1 X37.660 Y-18.150 E4.83259
G1 X37.980 Y-17.850 E4.85142
G1 X38.130 Y-17.680 E4.86115
G1 X38.530 Y-17.140 E4.88999
G1 X38.840 Y-16.550 E4.91859
G1 X39.050 Y-15.920 E4.94709
G1 X39.170 Y-15.260 E4.97588
G1 X39.190 Y-15.030 E4.98579
G1 X39.190 Y5.050 E5.84759
G1 X39.140 Y5.490 E5.86660
G1 X39.050 Y5.930 E5.88587
G1 X38.920 Y6.360 E5.90515
G1 X38.740 Y6.780 E5.92477
G1 X38.520 Y7.170 E5.94398
G1 X38.260 Y7.540 E5.96339
G1 X37.800 Y8.040 E5.99255
G1 X37.460 Y8.330 E6.01173
G1 X36.890 Y8.690 E6.04066
G1 X36.480 Y8.890 E6.06024
G1 X36.060 Y9.040 E6.07938
G1 X35.620 Y9.150 E6.09885
G1 X-29.020 Y21.580 E8.92392
G1 X-29.460 Y21.640 E8.94298
G1 X-30.130 Y21.650 E8.97174
G1 X-30.570 Y21.600 E8.99074
G1 X-31.220 Y21.440 E9.01947
G1 X-31.630 Y21.280 E9.03836
G1 X-32.030 Y21.080 E9.05756
G1 X-32.580 Y20.710 E9.08601
G1 X-32.920 Y20.410 E9.10547
G1 X-33.220 Y20.090 E9.12429
G1 X-33.610 Y19.550 E9.15288
G1 X-33.820 Y19.160 E9.17189
G1 X-33.990 Y18.740 E9.19134
G1 X-34.120 Y18.320 E9.21021
G1 X-39.120 Y-1.670 E10.09457
G1 X-39.160 Y-1.880 E10.10375
G1 X-39.200 Y-2.310 E10.12228
G1 X-39.200 Y-15.030 E10.66821
G1 X-39.150 Y-15.480 E10.68764
G1 X-39.060 Y-15.920 E10.70691
G1 X-38.850 Y-16.550 E10.73541
G1 X-38.677 Y-16.896 E10.75200
G1 X-38.650 Y-16.950 E10.75461
G1 F900.000 E9.25461
G92 E0
G1 X33.980 Y-14.077 F7800.000
G1 F900.000 E1.50000
G1 X33.980 Y4.157 F540.000 E2.28259
G1 X-29.245 Y16.316 E5.04582
G1 X-33.980 Y-2.626 E5.88378
G1 X-33.980 Y-14.077 E6.37526
G1 X-9.949 Y-16.480 E7.41177
G1 X9.949 Y-16.480 E8.26577
G1 X33.920 Y-14.083 E9.29967
G1 X33.980 Y-14.077 E9.30228
G1 X34.385 Y-14.443 F7800.000
G1 X34.385 Y4.492 F540.000 E10.11496
G1 X-29.545 Y16.786 E12.90899
G1 X-34.385 Y-2.576 E13.76555
G1 X-34.385 Y-14.443 E14.27489
G1 X-9.969 Y-16.885 E15.32800
G1 X9.969 Y-16.885 E16.18373
G1 X34.325 Y-14.450 E17.23424
G1 X34.385 Y-14.443 E17.23684
G1 X34.443 Y-14.845 F7800.000
G1 X34.790 Y-14.810 F540.000 E17.25179
G1 X34.790 Y4.827 E18.09456
G1 X-29.844 Y17.256 E20.91940
G1 X-34.790 Y-2.526 E21.79454
G1 X-34.790 Y-14.810 E22.32176
G1 X-9.990 Y-17.290 E23.39146
G1 X9.990 Y-17.290 E24.24893
G1 X34.383 Y-14.851 E25.30108
G1 X34.443 Y-14.845 E25.30368
G1 X34.610 Y-14.475 F7800.000
G1 X32.807 Y-13.903
G1 X33.704 Y-13.006 F1080.000 E25.35840
G1 X33.704 Y-12.431 E25.38322
G1 X32.167 Y-13.967 E25.47693
G1 X31.528 Y-14.031 E25.50464
G1 X33.704 Y-11.855 E25.63735
G1 X33.704 Y-11.280 E25.66217
G1 X30.888 Y-14.095 E25.83387
G1 X30.249 Y-14.159 E25.86159
G1 X33.704 Y-10.704 E26.07229
G1 X33.704 Y-10.129 E26.09708
G1 X29.610 Y-14.223 E26.34678
G1 X28.971 Y-14.287 E26.37449
G1 X33.704 Y-9.554 E26.66318
G1 X33.704 Y-8.978 E26.68800
G1 X28.331 Y-14.351 E27.01569
G1 X27.692 Y-14.415 E27.04341
G1 X33.704 Y-8.402 E27.41010
G1 X33.704 Y-7.827 E27.43492
G1 X27.052 Y-14.479 E27.84060
G1 X26.413 Y-14.543 E27.86831
G1 X33.704 Y-7.251 E28.31299
G1 X33.704 Y-6.676 E28.33781
G1 X25.773 Y-14.607 E28.82149
G1 X25.134 Y-14.671 E28.84919
G1 X33.704 Y-6.101 E29.37187
G1 X33.704 Y-5.525 E29.39669
G1 X24.494 Y-14.735 E29.95836
G1 X23.855 Y-14.799 E29.98607
G1 X33.704 Y-4.950 E30.58673
G1 X33.704 Y-4.374 E30.61155
G1 X23.216 Y-14.863 E31.25121
G1 X22.576 Y-14.926 E31.27892
G1 X33.704 Y-3.799 E31.95758
G1 X33.704 Y-3.223 E31.98240
G1 X21.937 Y-14.990 E32.70006
G1 X21.297 Y-15.054 E32.72777
G1 X33.704 Y-2.648 E33.48442
G1 X33.704 Y-2.072 E33.50924
G1 X20.658 Y-15.118 E34.30489
G1 X20.019 Y-15.182 E34.33260
G1 X33.704 Y-1.497 E35.16724
G1 X33.704 Y-0.921 E35.19206
G1 X19.379 Y-15.246 E36.06571
G1 X18.740 Y-15.310 E36.09342
G1 X33.704 Y-0.346 E37.00606
G1 X33.704 Y0.230 E37.03088
G1 X18.100 Y-15.374 E37.98252
G1 X17.461 Y-15.438 E38.01023
G1 X33.704 Y0.805 E39.00086
G1 X33.704 Y1.381 E39.02568
G1 X16.821 Y-15.502 E40.05532
G1 X16.182 Y-15.566 E40.08303
G1 X33.704 Y1.956 E41.15166
G1 X33.704 Y2.532 E41.17647
G1 X15.543 Y-15.630 E42.28410
G1 X14.903 Y-15.694 E42.31181
G1 X33.704 Y3.107 E43.45843
G1 X33.704 Y3.683 E43.48325
G1 X14.264 Y-15.758 E44.66887
G1 X13.624 Y-15.822 E44.69658
G1 X33.447 Y4.001 E45.90553
G1 X32.965 Y4.094 E45.92673
G1 X12.985 Y-15.886 E47.14524
G1 X12.345 Y-15.950 E47.17295
G1 X32.482 Y4.187 E48.40103
G1 X31.999 Y4.280 E48.42222
G1 X11.706 Y-16.013 E49.65985
G1 X11.067 Y-16.077 E49.68757
G1 X31.517 Y4.373 E50.93476
G1 X31.034 Y4.465 E50.95596
G1 X10.427 Y-16.141 E52.21271
G1 X9.789 Y-16.204 E52.24037
G1 X30.551 Y4.558 E53.50660
G1 X30.069 Y4.651 E53.52780
G1 X9.214 Y-16.204 E54.79970
G1 X8.638 Y-16.204 E54.82452
G1 X29.586 Y4.744 E56.10208
G1 X29.103 Y4.837 E56.12327
G1 X8.063 Y-16.204 E57.40650
G1 X7.487 Y-16.204 E57.43131
G1 X28.621 Y4.929 E58.72019
G1 X28.138 Y5.022 E58.74138
G1 X6.912 Y-16.204 E60.03593
G1 X6.336 Y-16.204 E60.06075
G1 X27.655 Y5.115 E61.36095
G1 X27.173 Y5.208 E61.38215
G1 X5.761 Y-16.204 E62.68801
G1 X5.185 Y-16.204 E62.71283
G1 X26.690 Y5.301 E64.02435
G1 X26.207 Y5.394 E64.04555
G1 X4.610 Y-16.204 E65.36274
G1 X4.034 Y-16.204 E65.38756
G1 X25.725 Y5.486 E66.71040
G1 X25.242 Y5.579 E66.73160
G1 X3.459 Y-16.204 E68.06011
G1 X2.883 Y-16.204 E68.08492
G1 X24.759 Y5.672 E69.41909
G1 X24.277 Y5.765 E69.44029
G1 X2.308 Y-16.204 E70.78012
G1 X1.732 Y-16.204 E70.80494
G1 X23.794 Y5.858 E72.15043
G1 X23.311 Y5.951 E72.17162
G1 X1.157 Y-16.204 E73.52277
G1 X0.581 Y-16.204 E73.54759
G1 X22.829 Y6.043 E74.90440
G1 X22.346 Y6.136 E74.92559
G1 X0.006 Y-16.204 E76.28807
G1 X-0.570 Y-16.204 E76.31289
G1 X21.863 Y6.229 E77.68102
G1 X21.381 Y6.322 E77.70221
G1 X-1.145 Y-16.204 E79.07601
G1 X-1.721 Y-16.204 E79.10083
G1 X20.898 Y6.415 E80.48028
G1 X20.415 Y6.507 E80.50148
G1 X-2.296 Y-16.204 E81.88659
G1 X-2.872 Y-16.204 E81.91141
G1 X19.933 Y6.600 E83.30219
G1 X19.450 Y6.693 E83.32339
G1 X-3.447 Y-16.204 E84.71982
G1 X-4.022 Y-16.204 E84.74464
G1 X18.967 Y6.786 E86.14674
G1 X18.485 Y6.879 E86.16793
G1 X-4.598 Y-16.204 E87.57570
G1 X-5.173 Y-16.204 E87.60052
G1 X18.002 Y6.972 E89.01393
G1 X17.519 Y7.064 E89.03513
G1 X-5.749 Y-16.204 E90.45421
G1 X-6.324 Y-16.204 E90.47903
G1 X17.037 Y7.157 E91.90377
G1 X16.554 Y7.250 E91.92496
G1 X-6.900 Y-16.204 E93.35536
G1 X-7.475 Y-16.204 E93.38018
G1 X16.071 Y7.343 E94.81625
G1 X15.589 Y7.436 E94.83744
G1 X-8.051 Y-16.204 E96.27917
G1 X-8.626 Y-16.204 E96.30398
G1 X15.106 Y7.528 E97.75137
G1 X14.624 Y7.621 E97.77256
G1 X-9.202 Y-16.204 E99.22561
G1 X-9.777 Y-16.204 E99.25043
G1 X14.141 Y7.714 E100.70914
G1 X13.658 Y7.807 E100.73033
G1 X-10.326 Y-16.177 E102.19307
G1 X-10.849 Y-16.125 E102.21574
G1 X13.176 Y7.900 E103.68094
G1 X12.693 Y7.993 E103.70214
G1 X-11.372 Y-16.073 E105.16981
G1 X-11.895 Y-16.020 E105.19248
G1 X12.210 Y8.085 E106.66262
G1 X11.728 Y8.178 E106.68382
G1 X-12.419 Y-15.968 E108.15643
G1 X-12.942 Y-15.916 E108.17911
G1 X11.245 Y8.271 E109.65419
G1 X10.762 Y8.364 E109.67539
G1 X-13.465 Y-15.863 E111.15294
G1 X-13.988 Y-15.811 E111.17561
G1 X10.280 Y8.457 E112.65563
G1 X9.797 Y8.550 E112.67683
G1 X-14.511 Y-15.759 E114.15933
G1 X-15.034 Y-15.706 E114.18200
G1 X9.314 Y8.642 E115.66696
G1 X8.832 Y8.735 E115.68816
G1 X-15.558 Y-15.654 E117.17559
G1 X-16.081 Y-15.602 E117.19826
G1 X8.349 Y8.828 E118.68817
G1 X7.866 Y8.921 E118.70937
G1 X-16.604 Y-15.549 E120.20174
G1 X-17.127 Y-15.497 E120.22442
G1 X7.384 Y9.014 E121.71926
G1 X6.901 Y9.106 E121.74046
G1 X-17.650 Y-15.445 E123.23777
G1 X-18.173 Y-15.393 E123.26045
G1 X6.418 Y9.199 E124.76023
G1 X5.936 Y9.292 E124.78143
G1 X-18.697 Y-15.340 E126.28369
G1 X-19.220 Y-15.288 E126.30636
G1 X5.453 Y9.385 E127.81108
G1 X4.970 Y9.478 E127.83227
G1 X-19.743 Y-15.236 E129.33947
G1 X-20.266 Y-15.183 E129.36214
G1 X4.488 Y9.570 E130.87181
G1 X4.005 Y9.663 E130.89301
G1 X-20.789 Y-15.131 E132.40514
G1 X-21.312 Y-15.079 E132.42782
G1 X3.522 Y9.756 E133.94242
G1 X3.040 Y9.849 E133.96362
G1 X-21.835 Y-15.026 E135.48069
G1 X-22.359 Y-14.974 E135.50337
G1 X2.557 Y9.942 E137.02291
G1 X2.074 Y10.035 E137.04411
G1 X-22.882 Y-14.922 E138.56613
G1 X-23.405 Y-14.869 E138.58880
G1 X1.592 Y10.127 E140.11329
G1 X1.109 Y10.220 E140.13449
G1 X-23.928 Y-14.817 E141.66144
G1 X-24.451 Y-14.765 E141.68412
G1 X0.626 Y10.313 E143.21354
G1 X0.144 Y10.406 E143.23474
G1 X-24.974 Y-14.712 E144.76664
G1 X-25.498 Y-14.660 E144.78931
G1 X-0.339 Y10.499 E146.32368
G1 X-0.822 Y10.591 E146.34487
G1 X-26.021 Y-14.608 E147.88171
G1 X-26.544 Y-14.555 E147.90438
G1 X-1.304 Y10.684 E149.44369
G1 X-1.787 Y10.777 E149.46489
G1 X-27.067 Y-14.503 E151.00666
G1 X-27.590 Y-14.451 E151.02934
G1 X-2.270 Y10.870 E152.57359
G1 X-2.752 Y10.963 E152.59478
G1 X-28.113 Y-14.398 E154.14150
G1 X-28.637 Y-14.346 E154.16417
G1 X-3.235 Y11.056 E155.71336
G1 X-3.718 Y11.148 E155.73456
G1 X-29.160 Y-14.294 E157.28622
G1 X-29.683 Y-14.242 E157.30889
G1 X-4.200 Y11.241 E158.86302
G1 X-4.683 Y11.334 E158.88422
G1 X-30.206 Y-14.189 E160.44082
G1 X-30.729 Y-14.137 E160.46349
G1 X-5.165 Y11.427 E162.02256
G1 X-5.648 Y11.520 E162.04376
G1 X-31.252 Y-14.085 E163.60530
G1 X-31.776 Y-14.032 E163.62797
G1 X-6.131 Y11.612 E165.19198
G1 X-6.613 Y11.705 E165.21317
G1 X-32.299 Y-13.980 E166.77965
G1 X-32.822 Y-13.928 E166.80233
G1 X-7.096 Y11.798 E168.37128
G1 X-7.579 Y11.891 E168.39247
G1 X-33.345 Y-13.875 E169.96389
G1 X-33.704 Y-13.659 E169.98197
G1 X-8.061 Y11.984 E171.54585
G1 X-8.544 Y12.077 E171.56705
G1 X-33.704 Y-13.083 E173.10149
G1 X-33.704 Y-12.508 E173.12630
G1 X-9.027 Y12.169 E174.63131
G1 X-9.509 Y12.262 E174.65251
G1 X-33.704 Y-11.932 E176.12808
G1 X-33.704 Y-11.357 E176.15290
G1 X-9.992 Y12.355 E177.59903
G1 X-10.475 Y12.448 E177.62023
G1 X-33.704 Y-10.781 E179.03693
G1 X-33.704 Y-10.206 E179.06174
G1 X-10.957 Y12.541 E180.44901
G1 X-11.440 Y12.633 E180.47020
G1 X-33.704 Y-9.631 E181.82803
G1 X-33.704 Y-9.055 E181.85285
G1 X-11.923 Y12.726 E183.18123
G1 X-12.405 Y12.819 E183.20243
G1 X-33.704 Y-8.480 E184.50138
G1 X-33.704 Y-7.904 E184.52620
G1 X-12.888 Y12.912 E185.79572
G1 X-13.371 Y13.005 E185.81691
G1 X-33.704 Y-7.329 E187.05699
G1 X-33.704 Y-6.753 E187.08181
G1 X-13.853 Y13.098 E188.29246
G1 X-14.336 Y13.190 E188.31365
G1 X-33.704 Y-6.178 E189.49486
G1 X-33.704 Y-5.602 E189.51968
G1 X-14.819 Y13.283 E190.67145
G1 X-15.301 Y13.376 E190.69265
G1 X-33.704 Y-5.027 E191.81498
G1 X-33.704 Y-4.451 E191.83980
G1 X-15.784 Y13.469 E192.93270
G1 X-16.267 Y13.562 E192.95390
G1 X-33.704 Y-3.876 E194.01737
G1 X-33.704 Y-3.300 E194.04218
G1 X-16.749 Y13.654 E195.07621
G1 X-17.232 Y13.747 E195.09740
G1 X-33.678 Y-2.698 E196.10038
G1 X-33.486 Y-1.931 E196.13449
G1 X-17.715 Y13.840 E197.09633
G1 X-18.197 Y13.933 E197.11752
G1 X-33.294 Y-1.164 E198.03823
G1 X-33.102 Y-0.396 E198.07234
G1 X-18.680 Y14.026 E198.95191
G1 X-19.163 Y14.119 E198.97310
G1 X-32.910 Y0.371 E199.81154
G1 X-32.718 Y1.138 E199.84565
G1 X-19.645 Y14.211 E200.64295
G1 X-20.128 Y14.304 E200.66414
G1 X-32.527 Y1.906 E201.42031
G1 X-32.335 Y2.673 E201.45441
G1 X-20.611 Y14.397 E202.16945
G1 X-21.093 Y14.490 E202.19064
G1 X-32.143 Y3.440 E202.86454
G1 X-31.951 Y4.207 E202.89865
G1 X-21.576 Y14.583 E203.53141
G1 X-22.059 Y14.676 E203.55261
G1 X-31.759 Y4.975 E204.14423
G1 X-31.567 Y5.742 E204.17834
G1 X-22.541 Y14.768 E204.72882
G1 X-23.024 Y14.861 E204.75002
G1 X-31.376 Y6.509 E205.25937
G1 X-31.184 Y7.277 E205.29348
G1 X-23.507 Y14.954 E205.76170
G1 X-23.989 Y15.047 E205.78289
G1 X-30.992 Y8.044 E206.20997
G1 X-30.800 Y8.811 E206.24408
G1 X-24.472 Y15.140 E206.63003
G1 X-24.955 Y15.232 E206.65123
G1 X-30.608 Y9.579 E206.99604
G1 X-30.417 Y10.346 E207.03015
G1 X-25.437 Y15.325 E207.33382
G1 X-25.920 Y15.418 E207.35502
G1 X-30.225 Y11.113 E207.61756
G1 X-30.033 Y11.880 E207.65167
G1 X-26.402 Y15.511 E207.87308
G1 X-26.885 Y15.604 E207.89428
G1 X-29.841 Y12.648 E208.07455
G1 X-29.649 Y13.415 E208.10866
G1 X-27.368 Y15.697 E208.24780
G1 X-27.850 Y15.789 E208.26899
G1 X-29.457 Y14.182 E208.36699
G1 X-29.266 Y14.950 E208.40110
G1 X-28.333 Y15.882 E208.45797
G1 X-29.074 Y15.717 E208.49069
G1 X-28.816 Y15.975 E208.50642
G1 F900.000 E207.00642
G92 E0
G1 Z0.600 F7800.000
G1 X-29.245 Y16.316
G1 F900.000 E1.50000
G1 X-33.980 Y-2.626 F1800.000 E2.33796
G1 X-33.980 Y-14.077 E2.82944
G1 X-9.949 Y-16.480 E3.86595
G1 X9.949 Y-16.480 E4.71995
G1 X33.980 Y-14.077 E5.75647
G1 X33.980 Y4.157 E6.53906
G1 X-29.185 Y16.305 E9.29967
G1 X-29.245 Y16.316 E9.30228
G1 X-29.545 Y16.786 F7800.000
G1 X-34.385 Y-2.576 F1800.000 E10.15884
G1 X-34.385 Y-14.443 E10.66818
G1 X-9.969 Y-16.885 E11.72129
G1 X9.969 Y-16.885 E12.57702
G1 X34.385 Y-14.443 E13.63013
G1 X34.385 Y4.492 E14.44281
G1 X-29.485 Y16.775 E17.23424
G1 X-29.545 Y16.786 E17.23684
G1 X-29.844 Y17.256 F7800.000
G1 X-34.790 Y-2.526 F1800.000 E18.11199
G1 X-34.790 Y-14.810 E18.63920
G1 X-9.990 Y-17.290 E19.70891
G1 X9.990 Y-17.290 E20.56638
G1 X34.790 Y-14.810 E21.63608
G1 X34.790 Y4.827 E22.47885
G1 X-29.785 Y17.245 E25.30108
G1 X-29.844 Y17.256 E25.30368
G1 X-29.726 Y16.869 F7800.000
G1 F900.000 E23.80368
G92 E0
G1 X-33.704 Y-13.006 F7800.000
G1 F900.000 E1.50000
G1 X-32.806 Y-13.904 F3600.000 E1.55481
G1 X-32.166 Y-13.967 E1.58260
G1 X-33.704 Y-12.429 E1.67649
G1 X-33.704 Y-11.853 E1.70135
G1 X-31.526 Y-14.031 E1.83432
G1 X-30.886 Y-14.096 E1.86208
G1 X-33.704 Y-11.278 E2.03414
G1 X-33.704 Y-10.701 E2.05902
G1 X-30.246 Y-14.159 E2.27015
G1 X-29.606 Y-14.223 E2.29791
G1 X-33.704 Y-10.125 E2.54812
G1 X-33.704 Y-9.549 E2.57298
G1 X-28.966 Y-14.288 E2.86226
G1 X-28.325 Y-14.351 E2.89005
G1 X-33.704 Y-8.973 E3.21841
G1 X-33.704 Y-8.397 E3.24327
G1 X-27.686 Y-14.415 E3.61071
G1 X-27.045 Y-14.480 E3.63848
G1 X-33.704 Y-7.821 E4.04500
G1 X-33.704 Y-7.245 E4.06987
G1 X-26.405 Y-14.544 E4.51546
G1 X-25.765 Y-14.608 E4.54323
G1 X-33.704 Y-6.669 E5.02791
G1 X-33.704 Y-6.093 E5.05278
G1 X-25.125 Y-14.672 E5.57653
G1 X-24.485 Y-14.736 E5.60430
G1 X-33.704 Y-5.517 E6.16713
G1 X-33.704 Y-4.940 E6.19200
G1 X-23.845 Y-14.800 E6.79391
G1 X-23.205 Y-14.864 E6.82168
G1 X-33.704 Y-4.364 E7.46267
G1 X-33.704 Y-3.788 E7.48754
G1 X-22.565 Y-14.928 E8.16761
G1 X-21.925 Y-14.992 E8.19538
G1 X-33.704 Y-3.212 E8.91452
G1 X-33.704 Y-2.636 E8.93939
G1 X-21.285 Y-15.056 E9.69761
G1 X-20.645 Y-15.120 E9.72538
G1 X-33.607 Y-2.157 E10.51675
G1 X-33.492 Y-1.696 E10.53726
G1 X-20.004 Y-15.184 E11.36066
G1 X-19.364 Y-15.248 E11.38843
G1 X-33.376 Y-1.236 E12.24389
G1 X-33.261 Y-0.775 E12.26440
G1 X-18.724 Y-15.312 E13.15189
G1 X-18.084 Y-15.376 E13.17966
G1 X-33.146 Y-0.314 E14.09920
G1 X-33.031 Y0.147 E14.11971
G1 X-17.444 Y-15.440 E15.07129
G1 X-16.804 Y-15.504 E15.09906
G1 X-32.915 Y0.608 E16.08269
G1 X-32.800 Y1.069 E16.10320
G1 X-16.164 Y-15.568 E17.11887
G1 X-15.524 Y-15.632 E17.14663
G1 X-32.685 Y1.530 E18.19435
G1 X-32.570 Y1.990 E18.21486
G1 X-14.884 Y-15.696 E19.29463
G1 X-14.244 Y-15.760 E19.32239
