; generated by Slic3r 0.9.8 on 2013-04-21 at 20:09:54

; layer_height = 0.3
; perimeters = 3
; top_solid_layers = 3
; bottom_solid_layers = 3
; fill_density = 0.3
; perimeter_speed = 30
; infill_speed = 60
; travel_speed = 130
; scale = 1
; nozzle_diameter = 0.35
; filament_diameter = 1.74
; extrusion_multiplier = 0.84
; perimeters extrusion width = 0.42mm
; infill extrusion width = 0.42mm
; first layer extrusion width = 0.42mm

M107
M190 S60 ; wait for bed temperature to be reached
M104 S180 ; set temperature
G21
G91
G1 X200 F3000
G1 Y200 F3000
G1 X-82 Y-76 F3000
G1 Z-200 F500
G1 Z5 F500
G1 Z-10 F250
G90
G92 X0 Y0 Z0 E0
M109 S180 ; wait for temperature to be reached
G90 ; use absolute coordinates
G21 ; set units to millimeters
G92 E0
M82 ; use absolute distances for extrusion
G1 F900.000 E-1.50000
G92 E0
G1 Z0.300 F7800.000
G1 X-33.820 Y-19.170
G1 F900.000 E1.50000
G1 X-33.610 Y-19.560 F540.000 E1.51901
G1 X-33.220 Y-20.100 E1.54760
G1 X-32.920 Y-20.420 E1.56642
G1 X-32.580 Y-20.720 E1.58588
G1 X-32.030 Y-21.090 E1.61433
G1 X-31.630 Y-21.290 E1.63353
G1 X-31.220 Y-21.450 E1.65242
G1 X-30.570 Y-21.610 E1.68115
G1 X-30.130 Y-21.660 E1.70015
G1 X-29.680 Y-21.660 E1.71947
G1 X-29.460 Y-21.650 E1.72892
G1 X-29.020 Y-21.590 E1.74798
G1 X35.620 Y-9.160 E4.57305
G1 X36.270 Y-8.980 E4.60199
G1 X36.690 Y-8.800 E4.62161
G1 X37.270 Y-8.470 E4.65025
G1 X37.460 Y-8.340 E4.66013
G1 X37.800 Y-8.050 E4.67931
G1 X38.260 Y-7.550 E4.70847
G1 X38.520 Y-7.180 E4.72787
G1 X38.740 Y-6.790 E4.74709
G1 X38.990 Y-6.160 E4.77618
G1 X39.100 Y-5.720 E4.79565
G1 X39.190 Y-5.060 E4.82423
G1 X39.190 Y15.020 E5.68604
G1 X39.140 Y15.470 E5.70547
G1 X39.050 Y15.910 E5.72474
G1 X38.840 Y16.540 E5.75324
G1 X38.530 Y17.130 E5.78185
G1 X38.270 Y17.500 E5.80126
G1 X37.980 Y17.840 E5.82044
G1 X37.480 Y18.290 E5.84931
G1 X37.120 Y18.540 E5.86812
G1 X36.730 Y18.760 E5.88734
G1 X36.320 Y18.930 E5.90638
G1 X35.890 Y19.070 E5.92579
G1 X35.450 Y19.160 E5.94507
G1 X10.420 Y21.670 E7.02470
G1 X9.980 Y21.690 E7.04361
G1 X-9.990 Y21.690 E7.90069
G1 X-10.430 Y21.670 E7.91959
G1 X-35.460 Y19.160 E8.99923
G1 X-35.900 Y19.070 E9.01850
G1 X-36.330 Y18.930 E9.03791
G1 X-36.740 Y18.760 E9.05696
G1 X-37.130 Y18.540 E9.07618
G1 X-37.490 Y18.290 E9.09499
G1 X-37.990 Y17.840 E9.12386
G1 X-38.280 Y17.500 E9.14304
G1 X-38.540 Y17.130 E9.16244
G1 X-38.850 Y16.540 E9.19105
G1 X-39.060 Y15.910 E9.21955
G1 X-39.150 Y15.470 E9.23883
G1 X-39.200 Y15.020 E9.25826
G1 X-39.200 Y2.300 E9.80418
G1 X-39.160 Y1.870 E9.82271
G1 X-39.070 Y1.450 E9.84115
G1 X-34.120 Y-18.330 E10.71625
G1 X-33.990 Y-18.750 E10.73512
G1 X-33.844 Y-19.114 E10.75196
G1 X-33.820 Y-19.170 E10.75457
G1 F900.000 E9.25457
G92 E0
G1 X-26.020 Y-0.520 F7800.000
G1 F900.000 E1.50000
G1 X-10.980 Y-0.520 F540.000 E2.14549
G1 X-10.980 Y8.520 E2.53347
G1 X-26.020 Y8.520 E3.17896
G1 X-26.020 Y-0.459 E3.56433
G1 X-26.020 Y-0.520 E3.56693
G1 X-25.615 Y-0.115 F7800.000
G1 X-11.385 Y-0.115 F540.000 E4.17766
G1 X-11.385 Y8.115 E4.53088
G1 X-25.615 Y8.115 E5.14160
G1 X-25.615 Y-0.054 E5.49221
G1 X-25.615 Y-0.115 E5.49482
G1 X-25.210 Y0.290 F7800.000
G1 X-11.790 Y0.290 F540.000 E6.07079
G1 X-11.790 Y7.710 E6.38924
G1 X-25.210 Y7.710 E6.96520
G1 X-25.210 Y0.351 E7.28105
G1 X-25.210 Y0.290 E7.28366
G1 X-25.210 Y-0.115 F7800.000
G1 F900.000 E5.78366
G92 E0
G1 X-33.980 Y14.077 F7800.000
G1 F900.000 E1.50000
G1 X-33.980 Y2.626 F540.000 E1.99148
G1 X-29.245 Y-16.316 E2.82944
G1 X33.980 Y-4.158 E5.59266
G1 X33.980 Y14.077 E6.37526
G1 X9.949 Y16.480 E7.41177
G1 X-9.949 Y16.480 E8.26577
G1 X-33.920 Y14.083 E9.29967
G1 X-33.980 Y14.077 E9.30228
G1 X-34.385 Y14.443 F7800.000
G1 X-34.385 Y2.576 F540.000 E9.81163
G1 X-29.545 Y-16.786 E10.66818
G1 X34.385 Y-4.492 E13.46221
G1 X34.385 Y14.443 E14.27489
G1 X9.969 Y16.885 E15.32800
G1 X-9.969 Y16.885 E16.18373
G1 X-34.325 Y14.449 E17.23424
G1 X-34.385 Y14.443 E17.23684
G1 X-34.538 Y14.835 F7800.000
G1 X-34.790 Y14.810 F540.000 E17.24771
G1 X-34.790 Y2.526 E17.77493
G1 X-29.844 Y-17.256 E18.65007
G1 X34.790 Y-4.827 E21.47491
G1 X34.790 Y14.810 E22.31768
G1 X9.990 Y17.290 E23.38738
G1 X-9.990 Y17.290 E24.24485
G1 X-34.477 Y14.841 E25.30108
G1 X-34.538 Y14.835 E25.30368
G1 X-34.705 Y14.466 F7800.000
G1 X-33.446 Y13.839
G1 X-33.704 Y13.581 F1080.000 E25.31943
G1 X-33.704 Y13.005 E25.34430
G1 X-32.806 Y13.903 E25.39912
G1 X-32.166 Y13.967 E25.42690
G1 X-33.704 Y12.429 E25.52080
G1 X-33.704 Y11.853 E25.54567
G1 X-31.526 Y14.031 E25.67865
G1 X-30.886 Y14.095 E25.70642
G1 X-33.704 Y11.277 E25.87848
G1 X-33.704 Y10.701 E25.90335
G1 X-30.246 Y14.159 E26.11449
G1 X-29.606 Y14.223 E26.14226
G1 X-33.704 Y10.125 E26.39248
G1 X-33.704 Y9.549 E26.41734
G1 X-28.966 Y14.287 E26.70664
G1 X-28.325 Y14.351 E26.73441
G1 X-33.704 Y8.973 E27.06278
G1 X-33.704 Y8.397 E27.08765
G1 X-27.685 Y14.416 E27.45510
G1 X-27.045 Y14.479 E27.48287
G1 X-33.704 Y7.821 E27.88940
G1 X-33.704 Y7.245 E27.91427
G1 X-26.405 Y14.544 E28.35987
G1 X-25.765 Y14.608 E28.38765
G1 X-33.704 Y6.668 E28.87233
G1 X-33.704 Y6.092 E28.89720
G1 X-25.125 Y14.672 E29.42097
G1 X-24.485 Y14.736 E29.44874
G1 X-33.704 Y5.516 E30.01158
G1 X-33.704 Y4.940 E30.03645
G1 X-23.845 Y14.800 E30.63837
G1 X-23.205 Y14.864 E30.66614
G1 X-33.704 Y4.364 E31.30714
G1 X-33.704 Y3.788 E31.33201
G1 X-22.565 Y14.928 E32.01208
G1 X-21.924 Y14.992 E32.03985
G1 X-33.704 Y3.212 E32.75901
G1 X-33.704 Y2.636 E32.78388
G1 X-21.284 Y15.056 E33.54211
G1 X-20.644 Y15.120 E33.56988
G1 X-33.607 Y2.157 E34.36125
G1 X-33.492 Y1.696 E34.38176
G1 X-26.296 Y8.892 E34.82106
G1 X-26.392 Y8.796 F7800.000
G1 X-20.004 Y15.184 F1080.000 E35.21103
G1 X-19.364 Y15.248 E35.23881
G1 X-25.816 Y8.796 E35.63269
G1 X-25.240 Y8.796 E35.65756
G1 X-18.724 Y15.312 E36.05535
G1 X-18.084 Y15.376 E36.08313
G1 X-24.664 Y8.796 E36.48483
G1 X-24.088 Y8.796 E36.50970
G1 X-17.444 Y15.440 E36.91530
G1 X-16.804 Y15.504 E36.94308
G1 X-23.512 Y8.796 E37.35259
G1 X-22.935 Y8.796 E37.37746
G1 X-16.164 Y15.568 E37.79088
G1 X-15.524 Y15.632 E37.81865
G1 X-22.359 Y8.796 E38.23598
G1 X-21.783 Y8.796 E38.26085
G1 X-14.884 Y15.696 E38.68209
G1 X-14.243 Y15.760 E38.70986
G1 X-21.207 Y8.796 E39.13501
G1 X-20.631 Y8.796 E39.15988
G1 X-13.603 Y15.824 E39.58894
G1 X-12.963 Y15.888 E39.61671
G1 X-20.055 Y8.796 E40.04967
G1 X-19.479 Y8.796 E40.07454
G1 X-12.323 Y15.952 E40.51141
G1 X-11.683 Y16.016 E40.53918
G1 X-18.903 Y8.796 E40.97996
G1 X-18.327 Y8.796 E41.00483
G1 X-11.043 Y16.080 E41.44952
G1 X-10.403 Y16.144 E41.47728
G1 X-17.751 Y8.796 E41.92587
G1 X-17.175 Y8.796 E41.95074
G1 X-9.767 Y16.204 E42.40301
G1 X-9.190 Y16.204 E42.42788
G1 X-16.598 Y8.796 E42.88016
G1 X-16.022 Y8.796 E42.90502
G1 X-8.614 Y16.204 E43.35729
G1 X-8.038 Y16.204 E43.38217
G1 X-15.446 Y8.796 E43.83444
G1 X-14.870 Y8.796 E43.85930
G1 X-7.462 Y16.204 E44.31158
G1 X-6.886 Y16.204 E44.33645
G1 X-14.294 Y8.796 E44.78872
G1 X-13.718 Y8.796 E44.81359
G1 X-6.310 Y16.204 E45.26586
G1 X-5.734 Y16.204 E45.29073
G1 X-13.142 Y8.796 E45.74300
G1 X-12.566 Y8.796 E45.76787
G1 X-5.158 Y16.204 E46.22014
G1 X-4.582 Y16.204 E46.24501
G1 X-11.990 Y8.796 E46.69729
G1 X-11.414 Y8.796 E46.72215
G1 X-4.006 Y16.204 E47.17442
G1 X-3.430 Y16.204 E47.19930
G1 X-10.838 Y8.796 E47.65157
G1 X-10.704 Y8.354 F7800.000
G1 X-2.854 Y16.204 F1080.000 E48.13085
G1 X-2.277 Y16.204 E48.15572
G1 X-10.704 Y7.777 E48.67017
G1 X-10.704 Y7.201 E48.69504
G1 X-1.701 Y16.204 E49.24466
G1 X-1.125 Y16.204 E49.26953
G1 X-10.704 Y6.625 E49.85433
G1 X-10.704 Y6.049 E49.87919
G1 X-0.549 Y16.204 E50.49915
G1 X0.027 Y16.204 E50.52403
G1 X-10.704 Y5.473 E51.17916
G1 X-10.704 Y4.897 E51.20403
G1 X0.603 Y16.204 E51.89433
G1 X1.179 Y16.204 E51.91920
G1 X-10.704 Y4.321 E52.64468
G1 X-10.704 Y3.745 E52.66954
G1 X1.755 Y16.204 E53.43019
G1 X2.331 Y16.204 E53.45506
G1 X-10.704 Y3.169 E54.25088
G1 X-10.704 Y2.593 E54.27574
G1 X2.907 Y16.204 E55.10673
G1 X3.483 Y16.204 E55.13160
G1 X-10.704 Y2.017 E55.99776
G1 X-10.704 Y1.441 E56.02262
G1 X4.059 Y16.204 E56.92395
G1 X4.636 Y16.204 E56.94882
G1 X-10.704 Y0.864 E57.88532
G1 X-10.704 Y0.288 E57.91018
G1 X5.212 Y16.204 E58.88185
G1 X5.788 Y16.204 E58.90672
G1 X-10.704 Y-0.288 E59.91356
G1 X-10.636 Y-0.796 E59.93570
G1 X-25.040 Y-15.199 E60.81504
G1 X-25.753 Y-15.336 E60.84639
G1 X-11.212 Y-0.796 E61.73410
G1 X-10.704 Y-0.864 E61.75624
G1 X6.364 Y16.204 E62.79825
G1 X6.940 Y16.204 E62.82312
G1 X-24.326 Y-15.062 E64.73196
G1 X-23.613 Y-14.925 E64.76331
G1 X7.516 Y16.204 E66.66377
G1 X8.092 Y16.204 E66.68864
G1 X-22.900 Y-14.788 E68.58073
G1 X-22.187 Y-14.651 E68.61209
G1 X8.668 Y16.204 E70.49580
G1 X9.244 Y16.204 E70.52067
G1 X-21.473 Y-14.513 E72.39601
G1 X-20.760 Y-14.376 E72.42737
G1 X9.820 Y16.204 E74.29433
G1 X10.366 Y16.173 E74.31791
G1 X-20.047 Y-14.239 E76.17463
G1 X-19.334 Y-14.102 E76.20598
G1 X10.889 Y16.121 E78.05113
G1 X11.413 Y16.068 E78.07385
G1 X-18.620 Y-13.965 E79.90742
G1 X-17.907 Y-13.828 E79.93877
G1 X11.937 Y16.016 E81.76077
G1 X12.460 Y15.964 E81.78350
G1 X-17.194 Y-13.690 E83.59393
G1 X-16.481 Y-13.553 E83.62528
G1 X12.984 Y15.911 E85.42414
G1 X13.508 Y15.859 E85.44686
G1 X-15.767 Y-13.416 E87.23415
G1 X-15.054 Y-13.279 E87.26551
G1 X14.031 Y15.807 E89.04122
G1 X14.555 Y15.754 E89.06394
G1 X-14.341 Y-13.142 E90.82809
G1 X-13.628 Y-13.005 E90.85944
G1 X15.079 Y15.702 E92.61202
G1 X15.603 Y15.650 E92.63474
G1 X-12.914 Y-12.867 E94.37574
G1 X-12.201 Y-12.730 E94.40709
G1 X16.126 Y15.597 E96.13652
G1 X16.650 Y15.545 E96.15924
G1 X-11.488 Y-12.593 E97.87710
G1 X-10.775 Y-12.456 E97.90846
G1 X17.174 Y15.492 E99.61475
G1 X17.697 Y15.440 E99.63747
G1 X-10.061 Y-12.319 E101.33218
G1 X-9.348 Y-12.182 E101.36354
G1 X18.221 Y15.388 E103.04668
G1 X18.745 Y15.335 E103.06941
G1 X-8.635 Y-12.045 E104.74098
G1 X-7.922 Y-11.907 E104.77234
G1 X19.269 Y15.283 E106.43234
G1 X19.792 Y15.231 E106.45506
G1 X-7.208 Y-11.770 E108.10349
G1 X-6.495 Y-11.633 E108.13485
G1 X20.316 Y15.178 E109.77171
G1 X20.840 Y15.126 E109.79443
G1 X-5.782 Y-11.496 E111.41972
G1 X-5.069 Y-11.359 E111.45107
G1 X21.363 Y15.074 E113.06479
G1 X21.887 Y15.021 E113.08752
G1 X-4.355 Y-11.222 E114.68966
G1 X-3.642 Y-11.084 E114.72102
G1 X22.411 Y14.969 E116.31159
G1 X22.935 Y14.916 E116.33432
G1 X-2.929 Y-10.947 E117.91332
G1 X-2.216 Y-10.810 E117.94468
G1 X23.458 Y14.864 E119.51211
G1 X23.982 Y14.812 E119.53483
G1 X-1.503 Y-10.673 E121.09069
G1 X-0.789 Y-10.536 E121.12204
G1 X24.506 Y14.759 E122.66633
G1 X25.029 Y14.707 E122.68906
G1 X-0.076 Y-10.399 E124.22178
G1 X0.637 Y-10.261 E124.25313
G1 X25.553 Y14.655 E125.77428
G1 X26.077 Y14.602 E125.79701
G1 X1.350 Y-10.124 E127.30658
G1 X2.064 Y-9.987 E127.33794
G1 X26.601 Y14.550 E128.83594
G1 X27.124 Y14.497 E128.85867
G1 X2.777 Y-9.850 E130.34510
G1 X3.490 Y-9.713 E130.37646
G1 X27.648 Y14.445 E131.85132
G1 X28.172 Y14.393 E131.87404
G1 X4.203 Y-9.576 E133.33733
G1 X4.917 Y-9.438 E133.36868
G1 X28.695 Y14.340 E134.82041
G1 X29.219 Y14.288 E134.84313
G1 X5.630 Y-9.301 E136.28328
G1 X6.343 Y-9.164 E136.31464
G1 X29.743 Y14.236 E137.74322
G1 X30.267 Y14.183 E137.76594
G1 X7.056 Y-9.027 E139.18295
G1 X7.770 Y-8.890 E139.21430
G1 X30.790 Y14.131 E140.61974
G1 X31.314 Y14.078 E140.64246
G1 X8.483 Y-8.753 E142.03633
G1 X9.196 Y-8.615 E142.06768
G1 X31.838 Y14.026 E143.44998
G1 X32.361 Y13.974 E143.47270
G1 X9.909 Y-8.478 E144.84342
G1 X10.623 Y-8.341 E144.87477
G1 X32.885 Y13.921 E146.23393
G1 X33.409 Y13.869 E146.25665
G1 X11.336 Y-8.204 E147.60423
G1 X12.049 Y-8.067 E147.63558
G1 X33.704 Y13.588 E148.95765
G1 X33.704 Y13.012 E148.98252
G1 X12.762 Y-7.930 E150.26104
G1 X13.475 Y-7.792 E150.29239
G1 X33.704 Y12.436 E151.52737
G1 X33.704 Y11.860 E151.55225
G1 X14.189 Y-7.655 E152.74367
G1 X14.902 Y-7.518 E152.77503
G1 X33.704 Y11.284 E153.92292
G1 X33.704 Y10.708 E153.94779
G1 X15.615 Y-7.381 E155.05213
G1 X16.328 Y-7.244 E155.08348
G1 X33.704 Y10.132 E156.14429
G1 X33.704 Y9.556 E156.16916
G1 X17.042 Y-7.107 E157.18641
G1 X17.755 Y-6.969 E157.21776
G1 X33.704 Y8.980 E158.19148
G1 X33.704 Y8.403 E158.21635
G1 X18.468 Y-6.832 E159.14651
G1 X19.181 Y-6.695 E159.17787
G1 X33.704 Y7.827 E160.06449
G1 X33.704 Y7.251 E160.08936
G1 X19.895 Y-6.558 E160.93244
G1 X20.608 Y-6.421 E160.96379
G1 X33.704 Y6.675 E161.76333
G1 X33.704 Y6.099 E161.78820
G1 X21.321 Y-6.284 E162.54419
G1 X22.034 Y-6.146 E162.57554
G1 X33.704 Y5.523 E163.28799
G1 X33.704 Y4.947 E163.31286
G1 X22.748 Y-6.009 E163.98176
G1 X23.461 Y-5.872 E164.01311
G1 X33.704 Y4.371 E164.63847
G1 X33.704 Y3.795 E164.66334
G1 X24.174 Y-5.735 E165.24515
G1 X24.887 Y-5.598 E165.27651
G1 X33.704 Y3.219 E165.81477
G1 X33.704 Y2.643 E165.83964
G1 X25.601 Y-5.461 E166.33437
G1 X26.314 Y-5.324 E166.36572
G1 X33.704 Y2.067 E166.81690
G1 X33.704 Y1.490 E166.84177
G1 X27.027 Y-5.186 E167.24940
G1 X27.740 Y-5.049 E167.28076
G1 X33.704 Y0.914 E167.64485
G1 X33.704 Y0.338 E167.66972
G1 X28.454 Y-4.912 E167.99027
G1 X29.167 Y-4.775 E168.02162
G1 X33.704 Y-0.238 E168.29862
G1 X33.704 Y-0.814 E168.32349
G1 X29.880 Y-4.638 E168.55695
G1 X30.593 Y-4.501 E168.58831
G1 X33.704 Y-1.390 E168.77822
G1 X33.704 Y-1.966 E168.80309
G1 X31.307 Y-4.363 E168.94946
G1 X32.020 Y-4.226 E168.98081
G1 X33.704 Y-2.542 E169.08363
G1 X33.704 Y-3.118 E169.10851
G1 X32.733 Y-4.089 E169.16778
G1 F900.000 E167.66778
G92 E0
G1 X-11.788 Y-0.796 F7800.000
G1 F900.000 E1.50000
G1 X-26.466 Y-15.474 F1080.000 E2.39609
G1 X-27.179 Y-15.611 E2.42744
G1 X-12.364 Y-0.796 E3.33190
G1 X-12.941 Y-0.796 E3.35677
G1 X-27.893 Y-15.748 E4.26961
G1 X-28.606 Y-15.885 E4.30096
G1 X-13.517 Y-0.796 E5.22217
G1 X-14.093 Y-0.796 E5.24704
G1 X-29.113 Y-15.816 E6.16407
G1 X-29.228 Y-15.356 E6.18457
G1 X-14.669 Y-0.796 E7.07346
G1 X-15.245 Y-0.796 E7.09833
G1 X-29.344 Y-14.895 E7.95908
G1 X-29.459 Y-14.434 E7.97959
G1 X-15.821 Y-0.796 E8.81220
G1 X-16.397 Y-0.796 E8.83708
G1 X-29.574 Y-13.973 E9.64155
G1 X-29.689 Y-13.512 E9.66206
G1 X-16.973 Y-0.796 E10.43840
G1 X-17.549 Y-0.796 E10.46327
G1 X-29.805 Y-13.051 E11.21148
G1 X-29.920 Y-12.590 E11.23198
G1 X-18.125 Y-0.796 E11.95205
G1 X-18.701 Y-0.796 E11.97693
G1 X-30.035 Y-12.130 E12.66886
G1 X-30.150 Y-11.669 E12.68936
G1 X-19.277 Y-0.796 E13.35316
G1 X-19.854 Y-0.796 E13.37803
G1 X-30.265 Y-11.208 E14.01369
G1 X-30.381 Y-10.747 E14.03420
G1 X-20.430 Y-0.796 E14.64172
G1 X-21.006 Y-0.796 E14.66660
G1 X-30.496 Y-10.286 E15.24598
G1 X-30.611 Y-9.825 E15.26649
G1 X-21.582 Y-0.796 E15.81774
G1 X-22.158 Y-0.796 E15.84261
G1 X-30.726 Y-9.364 E16.36573
G1 X-30.842 Y-8.904 E16.38623
G1 X-22.734 Y-0.796 E16.88121
G1 X-23.310 Y-0.796 E16.90608
G1 X-30.957 Y-8.443 E17.37292
G1 X-31.072 Y-7.982 E17.39343
G1 X-23.886 Y-0.796 E17.83214
G1 X-24.462 Y-0.796 E17.85701
G1 X-31.187 Y-7.521 E18.26758
G1 X-31.302 Y-7.060 E18.28808
G1 X-25.038 Y-0.796 E18.67052
G1 X-25.614 Y-0.796 E18.69539
G1 X-31.418 Y-6.599 E19.04969
G1 X-31.533 Y-6.138 E19.07019
G1 X-26.190 Y-0.796 E19.39635
G1 X-26.296 Y-0.325 F7800.000
G1 X-31.648 Y-5.677 F1080.000 E19.72310
G1 X-31.763 Y-5.217 E19.74361
G1 X-26.296 Y0.251 E20.07740
G1 X-26.296 Y0.827 E20.10227
G1 X-31.878 Y-4.756 E20.44309
G1 X-31.994 Y-4.295 E20.46359
G1 X-26.296 Y1.403 E20.81145
G1 X-26.296 Y1.979 E20.83632
G1 X-32.109 Y-3.834 E21.19121
G1 X-32.224 Y-3.373 E21.21171
G1 X-26.296 Y2.555 E21.57363
G1 X-26.296 Y3.131 E21.59850
G1 X-32.339 Y-2.912 E21.96746
G1 X-32.454 Y-2.451 E21.98797
G1 X-26.296 Y3.707 E22.36396
G1 X-26.296 Y4.283 E22.38883
G1 X-32.570 Y-1.991 E22.77185
G1 X-32.685 Y-1.530 E22.79236
G1 X-26.296 Y4.859 E23.18241
G1 X-26.296 Y5.435 E23.20729
G1 X-32.800 Y-1.069 E23.60438
G1 X-32.915 Y-0.608 E23.62488
G1 X-26.296 Y6.011 E24.02901
G1 X-26.296 Y6.588 E24.05388
G1 X-33.031 Y-0.147 E24.46504
G1 X-33.146 Y0.314 E24.48555
G1 X-26.296 Y7.164 E24.90374
G1 X-26.296 Y7.740 E24.92861
G1 X-33.261 Y0.775 E25.35385
G1 X-33.376 Y1.235 E25.37435
G1 X-26.296 Y8.316 E25.80661
G1 F900.000 E24.30661
G92 E0
G1 Z0.600 F7800.000
G1 X-26.020 Y8.520
G1 F900.000 E1.50000
G1 X-26.020 Y-0.520 F1800.000 E1.88798
G1 X-10.980 Y-0.520 E2.53347
G1 X-10.980 Y8.520 E2.92145
G1 X-25.959 Y8.520 E3.56433
G1 X-26.020 Y8.520 E3.56693
G1 X-25.615 Y8.115 F7800.000
G1 X-25.615 Y-0.115 F1800.000 E3.92015
G1 X-11.385 Y-0.115 E4.53088
