; generated by Slic3r 0.9.8 on 2013-04-23 at 22:54:07

; layer_height = 0.3
; perimeters = 3
; top_solid_layers = 3
; bottom_solid_layers = 3
; fill_density = 0.3
; perimeter_speed = 30
; infill_speed = 60
; travel_speed = 130
; scale = 1
; nozzle_diameter = 0.35
; filament_diameter = 1.74
; extrusion_multiplier = 0.84
; perimeters extrusion width = 0.42mm
; infill extrusion width = 0.42mm
; first layer extrusion width = 0.42mm

M107
M190 S60 ; wait for bed temperature to be reached
M104 S180 ; set temperature
G21
G91
G1 X200 F3000
G1 Y200 F3000
G1 X-82 Y-76 F3000
G1 Z-200 F500
G1 Z5 F500
G1 Z-10 F250
G90
G92 X0 Y0 Z0 E0
M109 S180 ; wait for temperature to be reached
G90 ; use absolute coordinates
G21 ; set units to millimeters
G92 E0
M82 ; use absolute distances for extrusion
G1 F900.000 E-1.50000
G92 E0
G1 Z0.300 F7800.000
G1 X-21.650 Y-11.940
G1 F900.000 E1.50000
G1 X-21.420 Y-12.320 F540.000 E1.51906
G1 X-20.990 Y-12.830 E1.54769
G1 X-20.670 Y-13.140 E1.56682
G1 X-20.320 Y-13.420 E1.58605
G1 X-20.130 Y-13.540 E1.59570
G1 X-19.540 Y-13.850 E1.62430
G1 X-19.120 Y-14.000 E1.64344
G1 X-18.690 Y-14.110 E1.66249
G1 X-18.020 Y-14.200 E1.69150
G1 X18.010 Y-14.200 E3.23785
G1 X18.460 Y-14.150 E3.25729
G1 X19.110 Y-14.000 E3.28592
G1 X19.530 Y-13.850 E3.30506
G1 X19.930 Y-13.650 E3.32425
G1 X20.310 Y-13.420 E3.34332
G1 X20.820 Y-12.990 E3.37195
G1 X21.130 Y-12.670 E3.39107
G1 X21.410 Y-12.320 E3.41030
G1 X21.530 Y-12.130 E3.41995
G1 X21.840 Y-11.540 E3.44855
G1 X21.990 Y-11.120 E3.46769
G1 X22.100 Y-10.690 E3.48674
G1 X22.190 Y-10.020 E3.51576
G1 X22.190 Y10.010 E4.37541
G1 X22.100 Y10.680 E4.40443
G1 X21.990 Y11.110 E4.42347
G1 X21.840 Y11.530 E4.44262
G1 X21.530 Y12.120 E4.47122
G1 X21.270 Y12.490 E4.49063
G1 X20.820 Y12.980 E4.51918
G1 X20.310 Y13.410 E4.54781
G1 X19.930 Y13.640 E4.56687
G1 X19.530 Y13.840 E4.58607
G1 X19.320 Y13.920 E4.59571
G1 X18.680 Y14.100 E4.62425
G1 X18.010 Y14.190 E4.65326
G1 X-18.020 Y14.190 E6.19961
G1 X-18.470 Y14.140 E6.21904
G1 X-19.120 Y13.990 E6.24767
G1 X-19.540 Y13.840 E6.26681
G1 X-19.940 Y13.640 E6.28601
G1 X-20.320 Y13.410 E6.30507
G1 X-20.830 Y12.980 E6.33370
G1 X-21.140 Y12.660 E6.35282
G1 X-21.420 Y12.310 E6.37206
G1 X-21.540 Y12.120 E6.38170
G1 X-21.850 Y11.530 E6.41031
G1 X-22.000 Y11.110 E6.42945
G1 X-22.110 Y10.680 E6.44850
G1 X-22.200 Y10.010 E6.47751
G1 X-22.200 Y-10.020 E7.33717
G1 X-22.150 Y-10.470 E7.35660
G1 X-22.000 Y-11.120 E7.38523
G1 X-21.850 Y-11.540 E7.40437
G1 X-21.677 Y-11.886 E7.42096
G1 X-21.650 Y-11.940 E7.42356
G1 F900.000 E5.92356
G92 E0
G1 X-14.678 Y-2.509 F7800.000
G1 F900.000 E1.50000
G1 X-14.287 Y-2.734 F540.000 E1.51938
G1 X-13.934 Y-2.874 E1.53567
G1 X-13.566 Y-2.968 E1.55196
G1 X-13.190 Y-3.016 E1.56826
G1 X-12.810 Y-3.016 E1.58453
G1 X-12.434 Y-2.968 E1.60082
G1 X-12.066 Y-2.874 E1.61710
G1 X-11.713 Y-2.734 E1.63339
G1 X-11.381 Y-2.552 E1.64968
G1 X-11.074 Y-2.328 E1.66597
G1 X-10.797 Y-2.069 E1.68226
G1 X-10.555 Y-1.776 E1.69855
G1 X-10.352 Y-1.456 E1.71483
G1 X-10.190 Y-1.113 E1.73111
G1 X-10.073 Y-0.751 E1.74741
G1 X-10.002 Y-0.379 E1.76370
G1 X-9.978 Y0.000 E1.77999
G1 X-10.002 Y0.379 E1.79627
G1 X-10.073 Y0.751 E1.81256
G1 X-10.190 Y1.113 E1.82886
G1 X-10.352 Y1.456 E1.84514
G1 X-10.555 Y1.776 E1.86142
G1 X-10.797 Y2.069 E1.87771
G1 X-11.074 Y2.328 E1.89400
G1 X-11.381 Y2.552 E1.91029
G1 X-11.713 Y2.734 E1.92658
G1 X-12.066 Y2.874 E1.94286
G1 X-12.434 Y2.968 E1.95915
G1 X-12.810 Y3.016 E1.97544
G1 X-13.190 Y3.016 E1.99173
G1 X-13.566 Y2.968 E2.00801
G1 X-13.934 Y2.874 E2.02430
G1 X-14.287 Y2.734 E2.04059
G1 X-14.619 Y2.552 E2.05688
G1 X-14.926 Y2.328 E2.07316
G1 X-15.203 Y2.069 E2.08945
G1 X-15.445 Y1.776 E2.10574
G1 X-15.648 Y1.456 E2.12202
G1 X-15.810 Y1.112 E2.13832
G1 X-15.927 Y0.751 E2.15461
G1 X-15.998 Y0.379 E2.17089
G1 X-16.022 Y0.000 E2.18718
G1 X-15.998 Y-0.379 E2.20347
G1 X-15.927 Y-0.751 E2.21975
G1 X-15.810 Y-1.112 E2.23604
G1 X-15.648 Y-1.456 E2.25233
G1 X-15.445 Y-1.776 E2.26861
G1 X-15.203 Y-2.069 E2.28490
G1 X-14.926 Y-2.328 E2.30119
G1 X-14.727 Y-2.473 E2.31175
G1 X-14.678 Y-2.509 E2.31436
G1 X-14.440 Y-2.181 F7800.000
G1 X-14.114 Y-2.367 F540.000 E2.33047
G1 X-13.808 Y-2.488 E2.34457
G1 X-13.490 Y-2.570 E2.35867
G1 X-13.164 Y-2.611 E2.37278
G1 X-12.836 Y-2.611 E2.38687
G1 X-12.510 Y-2.570 E2.40097
G1 X-12.192 Y-2.488 E2.41507
G1 X-11.886 Y-2.367 E2.42917
G1 X-11.598 Y-2.209 E2.44327
G1 X-11.332 Y-2.016 E2.45737
G1 X-11.093 Y-1.791 E2.47148
G1 X-10.883 Y-1.538 E2.48558
G1 X-10.707 Y-1.260 E2.49968
G1 X-10.568 Y-0.963 E2.51377
G1 X-10.466 Y-0.651 E2.52788
G1 X-10.404 Y-0.328 E2.54198
G1 X-10.384 Y0.000 E2.55608
G1 X-10.404 Y0.328 E2.57018
G1 X-10.466 Y0.651 E2.58428
G1 X-10.568 Y0.963 E2.59839
G1 X-10.707 Y1.260 E2.61248
G1 X-10.883 Y1.538 E2.62658
G1 X-11.093 Y1.791 E2.64068
G1 X-11.332 Y2.016 E2.65478
G1 X-11.598 Y2.209 E2.66888
G1 X-11.886 Y2.367 E2.68299
G1 X-12.192 Y2.488 E2.69709
G1 X-12.510 Y2.570 E2.71118
G1 X-12.836 Y2.611 E2.72529
G1 X-13.164 Y2.611 E2.73939
G1 X-13.490 Y2.570 E2.75349
G1 X-13.808 Y2.488 E2.76759
G1 X-14.114 Y2.367 E2.78169
G1 X-14.402 Y2.209 E2.79579
G1 X-14.668 Y2.016 E2.80989
G1 X-14.907 Y1.791 E2.82399
G1 X-15.117 Y1.538 E2.83809
G1 X-15.293 Y1.260 E2.85219
G1 X-15.432 Y0.963 E2.86629
G1 X-15.534 Y0.651 E2.88040
G1 X-15.596 Y0.328 E2.89449
G1 X-15.616 Y0.000 E2.90859
G1 X-15.596 Y-0.328 E2.92270
G1 X-15.534 Y-0.651 E2.93679
G1 X-15.432 Y-0.963 E2.95089
G1 X-15.293 Y-1.260 E2.96500
G1 X-15.117 Y-1.538 E2.97909
G1 X-14.907 Y-1.791 E2.99320
G1 X-14.668 Y-2.016 E3.00730
G1 X-14.489 Y-2.146 E3.01677
G1 X-14.440 Y-2.181 E3.01938
G1 X-14.202 Y-1.854 F7800.000
G1 X-13.941 Y-2.000 F540.000 E3.03221
G1 X-13.683 Y-2.102 E3.04412
G1 X-13.414 Y-2.171 E3.05604
G1 X-13.139 Y-2.206 E3.06795
G1 X-12.861 Y-2.206 E3.07986
G1 X-12.586 Y-2.171 E3.09178
G1 X-12.317 Y-2.102 E3.10369
G1 X-12.059 Y-2.000 E3.11560
G1 X-11.816 Y-1.866 E3.12752
G1 X-11.591 Y-1.703 E3.13943
G1 X-11.389 Y-1.513 E3.15135
G1 X-11.212 Y-1.299 E3.16326
G1 X-11.063 Y-1.065 E3.17517
G1 X-10.945 Y-0.814 E3.18708
G1 X-10.859 Y-0.550 E3.19900
G1 X-10.807 Y-0.277 E3.21091
G1 X-10.790 Y0.000 E3.22283
G1 X-10.807 Y0.277 E3.23474
G1 X-10.859 Y0.550 E3.24665
G1 X-10.945 Y0.814 E3.25857
G1 X-11.063 Y1.065 E3.27048
G1 X-11.212 Y1.299 E3.28239
G1 X-11.389 Y1.513 E3.29431
G1 X-11.591 Y1.703 E3.30622
G1 X-11.816 Y1.866 E3.31814
G1 X-12.059 Y2.000 E3.33005
G1 X-12.317 Y2.102 E3.34196
G1 X-12.586 Y2.171 E3.35388
G1 X-12.861 Y2.206 E3.36579
G1 X-13.139 Y2.206 E3.37770
G1 X-13.414 Y2.171 E3.38962
G1 X-13.683 Y2.102 E3.40153
G1 X-13.941 Y2.000 E3.41344
G1 X-14.184 Y1.866 E3.42536
G1 X-14.409 Y1.703 E3.43727
G1 X-14.611 Y1.513 E3.44918
G1 X-14.788 Y1.299 E3.46110
G1 X-14.937 Y1.065 E3.47301
G1 X-15.055 Y0.814 E3.48493
G1 X-15.141 Y0.550 E3.49684
G1 X-15.193 Y0.277 E3.50875
G1 X-15.210 Y0.000 E3.52067
G1 X-15.193 Y-0.277 E3.53258
G1 X-15.141 Y-0.550 E3.54449
G1 X-15.055 Y-0.814 E3.55641
G1 X-14.937 Y-1.065 E3.56832
G1 X-14.788 Y-1.299 E3.58023
G1 X-14.611 Y-1.513 E3.59215
G1 X-14.409 Y-1.703 E3.60406
G1 X-14.251 Y-1.818 E3.61244
G1 X-14.202 Y-1.854 E3.61505
G1 X-14.213 Y-2.258 F7800.000
G1 F900.000 E2.11505
G92 E0
G1 X-4.020 Y-8.980 F7800.000
G1 F900.000 E1.50000
G1 X-4.020 Y8.980 F540.000 E2.27082
G1 X-16.980 Y8.980 E2.82704
G1 X-16.980 Y-8.980 E3.59786
G1 X-4.081 Y-8.980 E4.15148
G1 X-4.020 Y-8.980 E4.15409
G1 X-3.615 Y-9.385 F7800.000
G1 X-3.615 Y9.385 F540.000 E4.95967
G1 X-17.385 Y9.385 E5.55066
G1 X-17.385 Y-9.385 E6.35624
G1 X-3.676 Y-9.385 E6.94462
G1 X-3.615 Y-9.385 E6.94723
G1 X-3.210 Y-9.790 F7800.000
G1 X-3.210 Y9.790 F540.000 E7.78757
G1 X-17.790 Y9.790 E8.41332
G1 X-17.790 Y-9.790 E9.25366
G1 X-3.271 Y-9.790 E9.87680
G1 X-3.210 Y-9.790 E9.87941
G1 X-3.412 Y-9.439 F7800.000
G1 X-4.296 Y-8.446
G1 X-4.554 Y-8.704 F1080.000 E9.89511
G1 X-5.128 Y-8.704 E9.91985
G1 X-4.296 Y-7.872 E9.97053
G1 X-4.296 Y-7.297 E9.99526
G1 X-5.703 Y-8.704 E10.08092
G1 X-6.277 Y-8.704 E10.10565
G1 X-4.296 Y-6.723 E10.22630
G1 X-4.296 Y-6.148 E10.25103
G1 X-6.852 Y-8.704 E10.40664
G1 X-7.426 Y-8.704 E10.43138
G1 X-4.296 Y-5.574 E10.62198
G1 X-4.296 Y-4.999 E10.64672
G1 X-8.001 Y-8.704 E10.87229
G1 X-8.575 Y-8.704 E10.89703
G1 X-4.296 Y-4.425 E11.15759
G1 X-4.296 Y-3.850 E11.18233
G1 X-9.150 Y-8.704 E11.47786
G1 X-9.724 Y-8.704 E11.50260
G1 X-4.296 Y-3.276 E11.83312
G1 X-4.296 Y-2.701 E11.85786
G1 X-10.299 Y-8.704 E12.22335
G1 X-10.874 Y-8.704 E12.24809
G1 X-4.296 Y-2.127 E12.64857
G1 X-4.296 Y-1.552 E12.67331
G1 X-11.448 Y-8.704 E13.10877
G1 X-12.023 Y-8.704 E13.13350
G1 X-4.296 Y-0.977 E13.60394
G1 X-4.296 Y-0.403 E13.62868
G1 X-12.597 Y-8.704 E14.13410
G1 X-13.172 Y-8.704 E14.15883
G1 X-4.296 Y0.172 E14.69923
G1 X-4.296 Y0.746 E14.72396
G1 X-13.746 Y-8.704 E15.29934
G1 X-14.321 Y-8.704 E15.32407
G1 X-4.296 Y1.321 E15.93443
G1 X-4.296 Y1.895 E15.95916
G1 X-14.895 Y-8.704 E16.60450
G1 X-15.470 Y-8.704 E16.62923
G1 X-4.296 Y2.470 E17.30955
G1 X-4.296 Y3.044 E17.33428
G1 X-16.044 Y-8.704 E18.04958
G1 F900.000 E16.54958
G92 E0
G1 X-16.205 Y-0.821 F7800.000
G1 F900.000 E1.50000
G1 X-16.704 Y-1.321 F1080.000 E1.53040
G1 X-16.704 Y-1.895 E1.55514
G1 X-16.021 Y-1.212 E1.59673
G1 X-15.829 Y-1.595 E1.61516
G1 X-16.704 Y-2.470 E1.66844
G1 X-16.704 Y-3.044 E1.69317
G1 X-15.600 Y-1.940 E1.76042
G1 X-15.335 Y-2.250 E1.77797
G1 X-16.704 Y-3.619 E1.86131
G1 X-16.704 Y-4.193 E1.88604
G1 X-15.037 Y-2.526 E1.98755
G1 X-14.704 Y-2.767 E2.00526
G1 X-16.704 Y-4.768 E2.12705
G1 X-16.704 Y-5.342 E2.15179
G1 X-14.333 Y-2.971 E2.29616
G1 X-13.921 Y-3.134 E2.31523
G1 X-16.704 Y-5.917 E2.48469
G1 X-16.704 Y-6.491 E2.50942
G1 X-13.458 Y-3.245 E2.70707
G1 X-12.930 Y-3.292 E2.72988
G1 X-16.704 Y-7.066 E2.95965
G1 X-16.704 Y-7.640 E2.98438
G1 X-12.312 Y-3.249 E3.25177
G1 X-11.495 Y-3.005 E3.28850
G1 X-16.704 Y-8.215 E3.60569
G1 X-16.619 Y-8.704 E3.62707
G1 X-4.296 Y3.619 E4.37734
G1 X-4.296 Y4.193 E4.40208
G1 X-9.997 Y-1.508 E4.74919
G1 X-9.753 Y-0.690 E4.78595
G1 X-4.296 Y4.768 E5.11823
G1 X-4.296 Y5.342 E5.14296
G1 X-9.705 Y-0.067 E5.47230
G1 X-9.758 Y0.455 E5.49489
G1 X-4.296 Y5.917 E5.82743
G1 X-4.296 Y6.491 E5.85216
G1 X-9.871 Y0.916 E6.19162
G1 X-10.034 Y1.328 E6.21070
G1 X-4.296 Y7.066 E6.56004
G1 X-4.296 Y7.640 E6.58478
G1 X-10.237 Y1.699 E6.94652
G1 X-10.478 Y2.033 E6.96424
G1 X-4.296 Y8.215 E7.34062
G1 X-4.381 Y8.704 E7.36200
G1 X-10.753 Y2.333 E7.74993
G1 X-11.062 Y2.598 E7.76747
G1 X-4.956 Y8.704 E8.13924
G1 X-5.530 Y8.704 E8.16398
G1 X-11.406 Y2.828 E8.52175
G1 X-11.789 Y3.020 E8.54018
G1 X-6.105 Y8.704 E8.88626
G1 X-6.679 Y8.704 E8.91099
G1 X-12.215 Y3.168 E9.24804
G1 X-12.694 Y3.264 E9.26905
G1 X-7.254 Y8.704 E9.60026
G1 X-7.828 Y8.704 E9.62500
G1 X-13.240 Y3.292 E9.95451
G1 X-13.903 Y3.204 E9.98327
G1 X-8.403 Y8.704 E10.31813
G1 X-8.977 Y8.704 E10.34286
G1 X-14.856 Y2.825 E10.70079
G1 X-15.829 Y1.853 F7800.000
G1 X-16.704 Y0.977 F1080.000 E10.75408
G1 X-16.704 Y1.552 E10.77882
G1 X-9.552 Y8.704 E11.21427
G1 X-10.126 Y8.704 E11.23901
G1 X-16.704 Y2.126 E11.63949
G1 X-16.704 Y2.701 E11.66423
G1 X-10.701 Y8.704 E12.02973
G1 X-11.275 Y8.704 E12.05447
G1 X-16.704 Y3.275 E12.38499
G1 X-16.704 Y3.850 E12.40973
G1 X-11.850 Y8.704 E12.70527
G1 X-12.425 Y8.704 E12.73001
G1 X-16.704 Y4.424 E12.99057
G1 X-16.704 Y4.999 E13.01530
G1 X-12.999 Y8.704 E13.24089
G1 X-13.574 Y8.704 E13.26562
G1 X-16.704 Y5.574 E13.45622
G1 X-16.704 Y6.148 E13.48096
G1 X-14.148 Y8.704 E13.63658
G1 X-14.723 Y8.704 E13.66132
G1 X-16.704 Y6.723 E13.78196
G1 X-16.704 Y7.297 E13.80669
G1 X-15.297 Y8.704 E13.89236
G1 X-15.872 Y8.704 E13.91710
G1 X-16.704 Y7.872 E13.96778
G1 X-16.704 Y8.446 E13.99251
G1 X-16.446 Y8.704 E14.00822
G1 F900.000 E12.50822
G92 E0
G1 X-16.439 Y0.561 F7800.000
G1 F900.000 E1.50000
G1 X-16.697 Y0.303 F360.000 E1.52695
G1 X-16.281 Y-0.268 E1.57914
G1 X-16.539 Y-0.526 E1.60610
G1 F900.000 E0.10610
G92 E0
G1 X11.022 Y0.000 F7800.000
G1 F900.000 E1.50000
G1 X10.998 Y0.379 F540.000 E1.51628
G1 X10.927 Y0.751 E1.53257
G1 X10.810 Y1.113 E1.54887
G1 X10.648 Y1.456 E1.56515
G1 X10.445 Y1.776 E1.58144
G1 X10.203 Y2.069 E1.59772
G1 X9.926 Y2.328 E1.61401
G1 X9.619 Y2.552 E1.63030
G1 X9.287 Y2.734 E1.64659
G1 X8.934 Y2.874 E1.66288
G1 X8.566 Y2.968 E1.67916
G1 X8.190 Y3.016 E1.69545
G1 X7.810 Y3.016 E1.71174
G1 X7.434 Y2.968 E1.72803
G1 X7.066 Y2.874 E1.74432
G1 X6.713 Y2.734 E1.76060
G1 X6.381 Y2.552 E1.77689
G1 X6.074 Y2.328 E1.79318
G1 X5.797 Y2.069 E1.80946
G1 X5.555 Y1.776 E1.82576
G1 X5.352 Y1.456 E1.84204
G1 X5.190 Y1.112 E1.85833
G1 X5.073 Y0.751 E1.87462
G1 X4.997 Y0.306 E1.89399
G1 X4.978 Y0.000 E1.90717
G1 X5.002 Y-0.379 E1.92346
G1 X5.073 Y-0.751 E1.93974
G1 X5.190 Y-1.112 E1.95603
G1 X5.352 Y-1.456 E1.97232
G1 X5.555 Y-1.776 E1.98860
G1 X5.797 Y-2.069 E2.00490
G1 X6.074 Y-2.328 E2.02118
G1 X6.381 Y-2.552 E2.03747
G1 X6.713 Y-2.734 E2.05376
G1 X7.066 Y-2.874 E2.07004
G1 X7.434 Y-2.968 E2.08633
G1 X7.810 Y-3.016 E2.10263
G1 X8.190 Y-3.016 E2.11891
G1 X8.494 Y-2.978 E2.13209
G1 X8.934 Y-2.874 E2.15146
G1 X9.287 Y-2.734 E2.16775
G1 X9.619 Y-2.552 E2.18404
G1 X9.926 Y-2.328 E2.20033
G1 X10.203 Y-2.069 E2.21662
G1 X10.399 Y-1.832 E2.22979
G1 X10.648 Y-1.456 E2.24917
G1 X10.810 Y-1.113 E2.26545
G1 X10.927 Y-0.751 E2.28175
G1 X10.998 Y-0.379 E2.29803
G1 X11.018 Y-0.061 E2.31171
G1 X11.022 Y0.000 E2.31432
G1 X10.616 Y0.000 F7800.000
G1 X10.596 Y0.328 F540.000 E2.32842
G1 X10.534 Y0.651 E2.34252
G1 X10.432 Y0.963 E2.35663
G1 X10.293 Y1.260 E2.37072
G1 X10.117 Y1.538 E2.38482
G1 X9.907 Y1.791 E2.39892
G1 X9.668 Y2.016 E2.41302
G1 X9.402 Y2.209 E2.42713
G1 X9.114 Y2.367 E2.44123
G1 X8.808 Y2.488 E2.45533
G1 X8.490 Y2.570 E2.46942
G1 X8.164 Y2.611 E2.48353
G1 X7.836 Y2.611 E2.49763
G1 X7.510 Y2.570 E2.51173
G1 X7.192 Y2.488 E2.52583
G1 X6.886 Y2.367 E2.53993
G1 X6.598 Y2.209 E2.55403
G1 X6.332 Y2.016 E2.56813
G1 X6.093 Y1.791 E2.58223
G1 X5.883 Y1.538 E2.59634
G1 X5.707 Y1.260 E2.61043
G1 X5.568 Y0.963 E2.62453
G1 X5.466 Y0.651 E2.63864
G1 X5.401 Y0.281 E2.65474
G1 X5.384 Y0.000 E2.66682
G1 X5.404 Y-0.328 E2.68092
G1 X5.466 Y-0.651 E2.69502
G1 X5.568 Y-0.963 E2.70912
G1 X5.707 Y-1.260 E2.72322
G1 X5.883 Y-1.538 E2.73732
G1 X6.093 Y-1.791 E2.75142
G1 X6.332 Y-2.016 E2.76552
G1 X6.598 Y-2.209 E2.77962
G1 X6.886 Y-2.367 E2.79372
G1 X7.192 Y-2.488 E2.80782
G1 X7.510 Y-2.570 E2.82193
G1 X7.836 Y-2.611 E2.83603
G1 X8.164 Y-2.611 E2.85013
G1 X8.444 Y-2.576 E2.86221
G1 X8.808 Y-2.488 E2.87831
G1 X9.114 Y-2.367 E2.89241
G1 X9.402 Y-2.209 E2.90652
G1 X9.668 Y-2.016 E2.92062
G1 X9.907 Y-1.791 E2.93472
G1 X10.117 Y-1.538 E2.94882
G1 X10.293 Y-1.260 E2.96292
G1 X10.432 Y-0.963 E2.97701
G1 X10.534 Y-0.651 E2.99112
G1 X10.596 Y-0.328 E3.00522
G1 X10.612 Y-0.061 E3.01671
G1 X10.616 Y0.000 E3.01932
G1 X10.210 Y0.000 F7800.000
G1 X10.193 Y0.277 F540.000 E3.03123
G1 X10.141 Y0.550 E3.04315
G1 X10.055 Y0.814 E3.05507
G1 X9.937 Y1.065 E3.06698
G1 X9.788 Y1.299 E3.07889
G1 X9.611 Y1.513 E3.09080
G1 X9.409 Y1.703 E3.10272
G1 X9.184 Y1.866 E3.11463
G1 X8.941 Y2.000 E3.12655
G1 X8.683 Y2.102 E3.13846
G1 X8.414 Y2.171 E3.15037
G1 X8.139 Y2.206 E3.16228
G1 X7.861 Y2.206 E3.17420
G1 X7.586 Y2.171 E3.18611
G1 X7.317 Y2.102 E3.19803
G1 X7.059 Y2.000 E3.20994
G1 X6.816 Y1.866 E3.22185
G1 X6.591 Y1.703 E3.23377
G1 X6.389 Y1.513 E3.24568
G1 X6.212 Y1.299 E3.25759
G1 X6.063 Y1.065 E3.26951
G1 X5.945 Y0.814 E3.28142
G1 X5.859 Y0.550 E3.29333
G1 X5.806 Y0.256 E3.30617
G1 X5.790 Y0.000 E3.31715
G1 X5.807 Y-0.277 E3.32907
G1 X5.859 Y-0.550 E3.34098
G1 X5.945 Y-0.814 E3.35289
G1 X6.063 Y-1.065 E3.36481
G1 X6.212 Y-1.299 E3.37672
G1 X6.389 Y-1.513 E3.38864
G1 X6.591 Y-1.703 E3.40055
G1 X6.816 Y-1.866 E3.41246
G1 X7.059 Y-2.000 E3.42438
G1 X7.317 Y-2.102 E3.43629
G1 X7.586 Y-2.171 E3.44820
G1 X7.861 Y-2.206 E3.46012
G1 X8.139 Y-2.206 E3.47203
G1 X8.393 Y-2.174 E3.48302
G1 X8.683 Y-2.102 E3.49585
G1 X8.941 Y-2.000 E3.50776
G1 X9.184 Y-1.866 E3.51968
G1 X9.409 Y-1.703 E3.53159
G1 X9.611 Y-1.513 E3.54351
G1 X9.788 Y-1.299 E3.55542
G1 X9.937 Y-1.065 E3.56733
G1 X10.055 Y-0.814 E3.57924
G1 X10.141 Y-0.550 E3.59116
G1 X10.193 Y-0.277 E3.60307
G1 X10.207 Y-0.061 E3.61238
G1 X10.210 Y0.000 E3.61499
G1 X10.557 Y0.210 F7800.000
G1 F900.000 E2.11499
